X:1
T:Just over the River
T:Just over the River
T:James Henry Fillmore, Sr.
T:Robert Spurgin, 1886
T:Public Domain Courtesy of the Cyber Hymnal™
T:Public Domain Courtesy of the Cyber Hymnal™
C:James Henry Fillmore, Sr.
Z:Public Domain
Z:Courtesy of the Cyber Hymnal™
%%score ( 1 2 ) ( 3 4 )
L:1/8
Q:1/4=88
M:6/8
K:Bb
V:1 treble 
V:2 treble 
V:3 bass 
V:4 bass 
V:1
 ([B,D]/[CE]/) | [DF][DF][DF] [DF][B,D][DF] | [DB][DB][DB] [EB][EA][EG] | %3
w: 1.~Just *|o- ver the ri- ver, just|o- ver the ri- ver, I’m|
w: 2.~Just *|o- ver the ri- ver, just|o- ver the ri- ver, The|
 [DF][DF][DF] [FB][Fc][Fd] | [Fc]3- [Fc]2 ([B,D]/[CE]/) | [DF][DF][DF] [DF][B,D][DF] | %6
w: told is the ci- ty of|God; * Its *|gates are of pearl, and its|
w: ci- ty that know- eth no|night; * It *|need- eth no sun, nei- ther|
 [DB][EB][FB] [GB][FA][EG] | [DF][DB][Fd] [Ec][DB][CA] | [DB]3- [DB]2 (A/B/) | %9
w: streets are of gold, And by|glo- ri- fied be- ings they’re|trod. * And *|
w: need- eth the moon, For the|glo- ry of God is its|light. * In~that *|
 [Fc][Fc][Fc] [Fc][FB][Fc] | [Fd][Fd][Fd] [Fd][Ec][Fd] | [Ge][Ge][Ge] [Fd][Fc][FB] | %12
w: Je- sus, my Sav- ior, has|gone to that ci- ty, A|place for His own to pre-|
w: ci- ty are loved ones a-|wait- ing my com- ing, Ex-|pect- ant they stand on the|
 [Fc]3- [Fc]2 ([B,D]/[CE]/) | [DF][DF][DF] [DF][B,D][DF] | [DB][EB][FB] [GB][FA][EG] | %15
w: pare; * In~the *|house of the Fa- ther the|man- sions are ma- ny, And|
w: shore; * O *|when shall I en- ter my|man- sion in Hea- ven, A|
 [DF][DB][Fd] [Ec][DB][EA] | [DB]3- [DB]2 ||"^Refrain" [DF] | d4 [Fc][GB] | B4 [FA][EG] | %20
w: one is a- wait- ing me|there. *|Just|o- ver the|riv- er, That|
w: pil- grim to roam ne- ver-|more? *||||
 [DF][DF][DF] [FB][Fc][Fd] | [Fc]3- [Fc]2 [DF] | d4 [Fc][FB] | B4 [FA][EG] | %24
w: beau- ti- ful ci- ty I|see; * Just|o- ver the|riv- er, A|
w: ||||
 [DF][DB][Fd] [Ec][DB][EA] | [DB]3- [DB]2 |] %26
w: place in that ci- ty for|me. *|
w: ||
V:2
 x | x6 | x6 | x6 | x6 | x6 | x6 | x6 | x5 F | x6 | x6 | x6 | x6 | x6 | x6 | x6 | x5 || x | %18
 (FFF F) x2 | (GGG G) x2 | x6 | x6 | (FFF F) x2 | (GGG G) x2 | x6 | x5 |] %26
V:3
 [B,,F,] | [B,,B,][B,,B,][B,,B,] [B,,B,][B,,F,][B,,B,] | [B,,F,][B,,F,][B,,F,] [E,G,][E,A,][E,B,] | %3
w: ~|~ ~ ~ ~ ~ ~|~ ~ ~ ~ ~ ~|
 [B,,B,][B,,B,][B,,B,] [D,B,][C,A,][B,,B,] | [F,A,]3- [F,A,]2 [B,,F,] | %5
w: ~ ~ ~ ~ ~ ~|~ * ~|
 [B,,B,][B,,B,][B,,B,] [B,,B,][B,,F,][B,,B,] | [B,,B,][C,B,][D,B,] [D,B,][E,B,][E,B,] | %7
w: ~ ~ ~ ~ ~ ~|~ ~ ~ ~ ~ ~|
 [F,B,][F,B,][F,B,] F,F,F, | [B,,F,]3- [B,,F,]2 (F,/G,/) | [F,A,][F,A,][F,A,] [F,A,][F,G,][F,A,] | %10
w: ~ ~ ~ ~ ~ ~|~ * ~ *|~ ~ ~ ~ ~ ~|
 B,B,B, B,B,B, | [E,B,][E,B,][E,B,] [B,,B,][C,A,][D,B,] | [F,A,]3- [F,A,]2 [B,,F,] | %13
w: ~ ~ ~ ~ ~ ~|~ ~ ~ ~ ~ ~|~ * ~|
 [B,,B,][B,,B,][B,,B,] [B,,B,][B,,F,][B,,B,] | [B,,B,][C,B,][D,B,] [E,B,][E,B,][E,B,] | %15
w: ~ ~ ~ ~ ~ ~|~ ~ ~ ~ ~ ~|
 [F,B,][F,B,][F,B,] [F,A,][F,B,][F,C] | [B,,B,]3- [B,,B,]2 || [B,,B,] | %18
w: ~ ~ ~ ~ ~ ~|~ *|Just|
 [B,,B,][B,,B,][B,,B,] [B,,B,][C,A,][D,B,] | [E,B,][E,B,][E,B,] [E,B,][E,B,][E,B,] | %20
w: o- ver the ri- ver, just|o- ver the ri- ver, That|
 [B,,B,][B,,B,][B,,B,] [D,B,][F,A,]B, | [F,A,]3- [F,A,]2 [F,A,] | %22
w: beau- ti- ful ci- ty I|see; * And|
 [B,,B,][B,,B,][B,,B,] [B,,B,][C,A,][D,B,] | [E,B,][E,B,][E,B,] [E,B,][E,B,][E,B,] | %24
w: Je- sus my Sav- ior, has|gone to make rea- dy A|
 [F,B,][F,B,][F,B,] [F,B,][F,B,][F,C] | [B,,B,]3- [B,,B,]2 |] %26
w: place in that ci- ty for|me. *|
V:4
 x | x6 | x6 | x6 | x6 | x6 | x6 | x3 F,F,F, | x5 F, | x6 | B,B,B, B,B,B, | x6 | x6 | x6 | x6 | %15
 x6 | x5 || x | x6 | x6 | x5 B, | x6 | x6 | x6 | x6 | x5 |] %26

